X:16786
T:The Green Gates
M:9/8
L:1/8
Q:120
S:learned from David Kidd
R:Slip Jig
P:AABB
Z:Lorna LaVerne
K:D
FAA FAd AFD | FAA FAd B2A | FAA FAd AFD | FED DFA B2A |
FAA FAd AFD | FAA FAd B2A | FAA FAd AFD | FED DFA B2A |
f3 faf edB | Aff fef gfe | f3 faf edB | AFE DFA B2A |
f3 faf edB | Aff fef gfe | f3 faf edB | AFE DFA B3 |
